src/assets/files-icon.svg

<svg width="245" height="211" viewBox="0 0 245 211" fill="none" xmlns="http://www.w3.org/2000/svg">
<path d="M222.052 211.001H22.9483C19.9347 211.001 16.9506 210.411 14.1664 209.265C11.3822 208.119 8.85236 206.439 6.72141 204.321C2.41776 200.045 0 194.244 0 188.196V32.4619H222.052C228.138 32.4619 233.975 34.8645 238.279 39.1411C242.582 43.4178 245 49.2181 245 55.2662V188.196C245 194.244 242.582 200.045 238.279 204.321C233.975 208.598 228.138 211.001 222.052 211.001ZM16.3333 48.6927V188.196C16.3333 189.94 17.0303 191.612 18.2708 192.845C19.5114 194.077 21.1939 194.77 22.9483 194.77H222.052C223.806 194.77 225.489 194.077 226.729 192.845C227.97 191.612 228.667 189.94 228.667 188.196V55.2662C228.667 53.5228 227.97 51.8508 226.729 50.618C225.489 49.3853 223.806 48.6927 222.052 48.6927H16.3333Z" fill="#024EC9"/>
<path d="M135.73 48.6927H0V22.8046C0 16.7565 2.41776 10.9562 6.72141 6.67952C11.0251 2.40289 16.8621 0.000304267 22.9483 0.000304267H97.02C101.29 -0.0216512 105.481 1.14501 109.118 3.36815C112.756 5.59129 115.694 8.78209 117.6 12.5792L135.73 48.6927ZM16.3333 32.4619H109.27L102.9 19.883C102.356 18.7933 101.518 17.8749 100.48 17.2301C99.442 16.5854 98.2442 16.2395 97.02 16.2311H22.9483C21.1939 16.2311 19.5114 16.9237 18.2708 18.1564C17.0303 19.3892 16.3333 21.0612 16.3333 22.8046V32.4619Z" fill="#024EC9"/>
</svg>

<svg width="245" height="211" fill="none" xmlns="http://www.w3.org/2000/svg"><path d="M222.052 211.001H22.948a23.08 23.08 0 01-8.782-1.736 22.953 22.953 0 01-7.445-4.944A22.73 22.73 0 010 188.196V32.462h222.052a23.023 23.023 0 0116.227 6.68A22.734 22.734 0 01245 55.265v132.93a22.733 22.733 0 01-6.721 16.125 23.023 23.023 0 01-16.227 6.68zM16.333 48.693v139.503c0 1.744.697 3.416 1.938 4.649a6.64 6.64 0 004.677 1.925h199.104a6.638 6.638 0 004.677-1.925 6.553 6.553 0 001.938-4.649V55.266a6.551 6.551 0 00-1.938-4.648 6.635 6.635 0 00-4.677-1.925H16.333z" fill="#024EC9"/><path d="M135.73 48.693H0V22.805A22.732 22.732 0 016.721 6.68 23.022 23.022 0 0122.948 0H97.02a22.973 22.973 0 0112.098 3.368 22.77 22.77 0 018.482 9.211l18.13 36.114zM16.333 32.462h92.937l-6.37-12.579a6.59 6.59 0 00-2.42-2.653 6.645 6.645 0 00-3.46-.999H22.948a6.637 6.637 0 00-4.677 1.925 6.553 6.553 0 00-1.938 4.649v9.657z" fill="#024EC9"/></svg>
